X:1
T:Why Do You Bob Your Hair, Girls?
M:4/4
L:1/4
K:C
 c| e e d c| e2 c G| A c c A| c3 G| c c c c| e g2 e| d d d e| d3 e|\
 g g g g| e2 c G| A c c A| c3 G| c c c d| e- g g e| d c e d| c3||
